jekyll/assets/img/instagram_outlined.svg

<svg fill="none" height="22" viewBox="0 0 22 22" width="22" xmlns="http://www.w3.org/2000/svg"><path clip-rule="evenodd" d="m5.7619 1.0238c-2.61678 0-4.7381 2.12132-4.7381 4.7381v10.4762c0 2.6168 2.12132 4.7381 4.7381 4.7381h10.4762c2.6168 0 4.7381-2.1213 4.7381-4.7381v-10.4762c0-2.61678-2.1213-4.7381-4.7381-4.7381zm-5.7380963 4.7381c0-3.16906 2.5690363-5.7380963 5.7380963-5.7380963h10.4762c3.1691 0 5.7381 2.5690363 5.7381 5.7380963v10.4762c0 3.1691-2.569 5.7381-5.7381 5.7381h-10.4762c-3.16906 0-5.7380963-2.569-5.7380963-5.7381zm11.5627963 1.54201c-.7678-.11386-1.552.0173-2.24101.37481s-1.24774.92318-1.59673 1.61655c-.349.69337-.47047 1.47913-.34715 2.24553s.48516 1.4743 1.03405 2.0232c.54888.5489 1.25687.9108 2.02324 1.0341.7664.1233 1.5522.0018 2.2455-.3472.6934-.349 1.2591-.9077 1.6166-1.5967s.4886-1.4732.3748-2.2411c-.1162-.78319-.4811-1.5083-1.041-2.06819-.5599-.55988-1.285-.92485-2.0683-1.041zm-2.70158-.51281c.87571-.45439 1.87238-.62108 2.84828-.47637.9955.14762 1.9171.61148 2.6287 1.32307.7116.7116 1.1754 1.63319 1.3231 2.6287.1447.9759-.022 1.9726-.4764 2.8483s-1.1733 1.5858-2.0546 2.0294c-.8812.4435-1.8799.5979-2.854.4412-.97401-.1568-1.87383-.6166-2.57145-1.3143-.69762-.6976-1.1575-1.5974-1.31424-2.5715-.15674-.974-.00235-1.97267.44121-2.85392s1.15369-1.60019 2.0294-2.05458zm7.87688-2.05301c-.2761 0-.5.22386-.5.5s.2239.5.5.5h.01c.2761 0 .5-.22386.5-.5s-.2239-.5-.5-.5z" fill="#fff" fill-rule="evenodd"/></svg>

<svg width="22" height="22" viewBox="0 0 22 22" fill="none" xmlns="http://www.w3.org/2000/svg">
<path fill-rule="evenodd" clip-rule="evenodd" d="M5.7619 1.0238C3.14512 1.0238 1.0238 3.14512 1.0238 5.7619V16.2381C1.0238 18.8549 3.14512 20.9762 5.7619 20.9762H16.2381C18.8549 20.9762 20.9762 18.8549 20.9762 16.2381V5.7619C20.9762 3.14512 18.8549 1.0238 16.2381 1.0238H5.7619ZM0.0238037 5.7619C0.0238037 2.59284 2.59284 0.0238037 5.7619 0.0238037H16.2381C19.4072 0.0238037 21.9762 2.59284 21.9762 5.7619V16.2381C21.9762 19.4072 19.4072 21.9762 16.2381 21.9762H5.7619C2.59284 21.9762 0.0238037 19.4072 0.0238037 16.2381V5.7619ZM11.5866 7.30391C10.8188 7.19005 10.0346 7.32121 9.34559 7.67872C8.65658 8.03623 8.09785 8.6019 7.74886 9.29527C7.39986 9.98864 7.27839 10.7744 7.40171 11.5408C7.52503 12.3072 7.88687 13.0151 8.43576 13.564C8.98464 14.1129 9.69263 14.4748 10.459 14.5981C11.2254 14.7214 12.0112 14.5999 12.7045 14.2509C13.3979 13.9019 13.9636 13.3432 14.3211 12.6542C14.6786 11.9652 14.8097 11.181 14.6959 10.4131C14.5797 9.62991 14.2148 8.9048 13.6549 8.34491C13.095 7.78503 12.3699 7.42006 11.5866 7.30391ZM8.88502 6.7911C9.76073 6.33671 10.7574 6.17002 11.7333 6.31473C12.7288 6.46235 13.6504 6.92621 14.362 7.6378C15.0736 8.3494 15.5374 9.27099 15.6851 10.2665C15.8298 11.2424 15.6631 12.2391 15.2087 13.1148C14.7543 13.9905 14.0354 14.7006 13.1541 15.1442C12.2729 15.5877 11.2742 15.7421 10.3001 15.5854C9.32609 15.4286 8.42627 14.9688 7.72865 14.2711C7.03103 13.5735 6.57115 12.6737 6.41441 11.6996C6.25767 10.7256 6.41206 9.72693 6.85562 8.84568C7.29918 7.96443 8.00931 7.24549 8.88502 6.7911ZM16.7619 4.73809C16.4858 4.73809 16.2619 4.96195 16.2619 5.23809C16.2619 5.51423 16.4858 5.73809 16.7619 5.73809H16.7719C17.048 5.73809 17.2719 5.51423 17.2719 5.23809C17.2719 4.96195 17.048 4.73809 16.7719 4.73809H16.7619Z" fill="white"/>
</svg>
